;FLAVOR:Marlin
;TIME:2316
;Filament used: 2.42253m, 0m
;Layer height: 0.2
;MINX:179.552
;MINY:132.449
;MINZ:0.2
;MAXX:220.994
;MAXY:171.087
;MAXZ:24.8
;Generated with Cura_SteamEngine 4.6.1
T0
M140 S50
M105
M190 S50
M104 S205
M105
M109 S205
M82 ;absolute extrusion mode
G28 ;Home
G1 Z15.0 F6000 ;Move the platform down 15mm
;Prime the extruder
G92 E0
G1 F200 E3
G92 E0
G92 E0
G92 E0
G1 F4200 E-8
;LAYER_COUNT:124
;LAYER:0
M107
G1 F600 Z0.6
G0 F1600 X216.931 Y133.267 Z0.6
;TYPE:SKIRT
G1 F600 Z0.2
G1 F4200 E0
G1 F1200 X217.42 Y133.392 E0.01595
G1 X217.882 Y133.594 E0.03188
G1 X218.308 Y133.866 E0.04785
G1 X218.685 Y134.201 E0.06379
G1 X219.004 Y134.592 E0.07973
G1 X219.258 Y135.029 E0.0957
G1 X219.44 Y135.5 E0.11166
G1 X219.545 Y135.993 E0.12758
G1 X219.571 Y136.331 E0.13829
G1 X219.593 Y137.229 E0.16668
G1 X219.647 Y147.704 E0.49766
G1 X219.7 Y150.442 E0.58419
G1 X219.829 Y153.153 E0.66995
G1 X220.04 Y155.93 E0.75795
G1 X220.168 Y157.172 E0.7974
G1 X220.212 Y157.681 E0.81354
G1 X220.233 Y158.192 E0.8297
G1 X220.234 Y163.071 E0.98386
G1 X220.224 Y163.769 E1.00592
G1 X220.177 Y164.271 E1.02185
G1 X220.051 Y164.76 E1.03781
G1 X219.849 Y165.223 E1.05377
G1 X219.577 Y165.648 E1.06971
G1 X219.13 Y166.153 E1.09102
G1 X218.569 Y166.705 E1.11589
G1 X218.213 Y167.008 E1.13066
G1 X217.676 Y167.4 E1.15167
G1 X216.421 Y168.287 E1.20023
G1 X215.407 Y169.027 E1.23989
G1 X214.858 Y169.349 E1.26
G1 X214.323 Y169.551 E1.27807
G1 X213.827 Y169.647 E1.29403
G1 X212.735 Y169.68 E1.32855
G1 X200.465 Y169.681 E1.71625
G1 X197.666 Y169.721 E1.8047
G1 X194.952 Y169.836 E1.89053
G1 X192.212 Y170.03 E1.97732
G1 X189.575 Y170.294 E2.06106
G1 X188.971 Y170.324 E2.08017
G1 X187.792 Y170.327 E2.11742
G1 X187.094 Y170.317 E2.13948
G1 X186.592 Y170.27 E2.15541
G1 X186.103 Y170.144 E2.17137
G1 X185.64 Y169.942 E2.18733
G1 X185.215 Y169.67 E2.20327
G1 X184.94 Y169.437 E2.21466
G1 X184.542 Y169.058 E2.23202
G1 X181.74 Y166.26 E2.35714
G1 X181.238 Y165.746 E2.37984
G1 X180.915 Y165.358 E2.3958
G1 X180.658 Y164.924 E2.41173
G1 X180.472 Y164.455 E2.42768
G1 X180.363 Y163.962 E2.44363
G1 X180.333 Y163.588 E2.45548
G1 X180.321 Y163.037 E2.4729
G1 X180.317 Y160.994 E2.53745
G1 X180.32 Y156.742 E2.6718
G1 X180.312 Y155.615 E2.70741
G1 X180.312 Y148.171 E2.94262
G1 X180.321 Y146.816 E2.98544
G1 X180.319 Y143.114 E3.10241
G1 X180.312 Y142.19 E3.13161
G1 X180.312 Y136.854 E3.30021
G1 X180.323 Y136.418 E3.31399
G1 X180.378 Y135.916 E3.32995
G1 X180.511 Y135.429 E3.3459
G1 X180.719 Y134.969 E3.36185
G1 X180.997 Y134.548 E3.37779
G1 X181.31 Y134.199 E3.3926
G1 X181.687 Y133.864 E3.40854
G1 X182.113 Y133.592 E3.42451
G1 X182.576 Y133.391 E3.44046
G1 X183.065 Y133.266 E3.4564
G1 X183.553 Y133.22 E3.47189
G1 X184.108 Y133.21 E3.48943
G1 X215.738 Y133.209 E4.48885
G1 X216.428 Y133.219 E4.51065
G1 X216.931 Y133.267 E4.52662
G0 F1600 X216.966 Y132.887
G1 F1200 X217.484 Y133.014 E4.54347
G1 X217.979 Y133.216 E4.56036
G1 X218.437 Y133.49 E4.57723
G1 X218.85 Y133.829 E4.59411
G1 X219.207 Y134.226 E4.61098
G1 X219.501 Y134.672 E4.62786
G1 X219.725 Y135.157 E4.64474
G1 X219.875 Y135.669 E4.6616
G1 X219.951 Y136.322 E4.68237
G1 X219.973 Y137.22 E4.71075
G1 X220.027 Y147.702 E5.04196
G1 X220.08 Y150.417 E5.12776
G1 X220.209 Y153.143 E5.21399
G1 X220.419 Y155.897 E5.30126
G1 X220.546 Y157.133 E5.34052
G1 X220.591 Y157.648 E5.35685
G1 X220.612 Y158.18 E5.37368
G1 X220.614 Y163.076 E5.52838
G1 X220.604 Y163.774 E5.55043
G1 X220.556 Y164.306 E5.56731
G1 X220.43 Y164.825 E5.58419
G1 X220.227 Y165.319 E5.60106
G1 X219.953 Y165.778 E5.61795
G1 X219.541 Y166.273 E5.6383
G1 X218.836 Y166.976 E5.66976
G1 X218.437 Y167.314 E5.68628
G1 X217.9 Y167.706 E5.70729
G1 X216.62 Y168.613 E5.75686
G1 X215.632 Y169.334 E5.79551
G1 X215.016 Y169.695 E5.81807
G1 X214.455 Y169.908 E5.83703
G1 X213.932 Y170.017 E5.85391
G1 X213.521 Y170.048 E5.86693
G1 X212.741 Y170.06 E5.89158
G1 X200.47 Y170.061 E6.27931
G1 X197.688 Y170.1 E6.36722
G1 X194.958 Y170.216 E6.45356
G1 X192.242 Y170.409 E6.53959
G1 X189.612 Y170.672 E6.62311
G1 X188.987 Y170.704 E6.64288
G1 X187.787 Y170.707 E6.6808
G1 X187.089 Y170.697 E6.70286
G1 X186.557 Y170.649 E6.71973
G1 X186.038 Y170.523 E6.73661
G1 X185.544 Y170.32 E6.75348
G1 X185.085 Y170.046 E6.77037
G1 X184.678 Y169.712 E6.78701
G1 X184.28 Y169.333 E6.80438
G1 X181.471 Y166.529 E6.92978
G1 X180.966 Y166.011 E6.95264
G1 X180.623 Y165.602 E6.96951
G1 X180.345 Y165.147 E6.98636
G1 X180.137 Y164.654 E7.00326
G1 X180.006 Y164.137 E7.02012
G1 X179.953 Y163.597 E7.03726
G1 X179.941 Y163.046 E7.05467
G1 X179.937 Y160.994 E7.11951
G1 X179.94 Y156.741 E7.25389
G1 X179.932 Y155.618 E7.28938
G1 X179.932 Y148.168 E7.52478
G1 X179.941 Y146.813 E7.56759
G1 X179.939 Y143.114 E7.68447
G1 X179.932 Y142.192 E7.7136
G1 X179.932 Y136.854 E7.88227
G1 X179.944 Y136.407 E7.8964
G1 X179.999 Y135.876 E7.91327
G1 X180.133 Y135.359 E7.93014
G1 X180.343 Y134.868 E7.94702
G1 X180.623 Y134.413 E7.9639
G1 X181.036 Y133.936 E7.98383
G1 X181.433 Y133.579 E8.0007
G1 X181.88 Y133.286 E8.01759
G1 X182.365 Y133.063 E8.03446
G1 X182.878 Y132.915 E8.05133
G1 X183.546 Y132.84 E8.07257
G1 X184.101 Y132.83 E8.09011
G1 X215.744 Y132.829 E9.08993
G1 X216.434 Y132.839 E9.11174
G1 X216.966 Y132.887 E9.12862
G0 F1600 X216.999 Y132.507
G1 F1200 X217.546 Y132.634 E9.14636
G1 X218.07 Y132.838 E9.16413
G1 X218.559 Y133.113 E9.18185
G1 X219.005 Y133.456 E9.19963
G1 X219.397 Y133.858 E9.21737
G1 X219.729 Y134.311 E9.23512
G1 X219.993 Y134.807 E9.25287
G1 X220.183 Y135.336 E9.27063
G1 X220.297 Y135.886 E9.28838
G1 X220.331 Y136.312 E9.30188
G1 X220.353 Y137.21 E9.33027
G1 X220.407 Y147.692 E9.66147
G1 X220.459 Y150.392 E9.7468
G1 X220.589 Y153.131 E9.83344
G1 X220.798 Y155.871 E9.92027
G1 X220.924 Y157.095 E9.95915
G1 X220.97 Y157.616 E9.97568
G1 X220.992 Y158.169 E9.99316
G1 X220.994 Y163.082 E10.1484
G1 X220.984 Y163.78 E10.17046
G1 X220.936 Y164.339 E10.18818
G1 X220.809 Y164.887 E10.20596
G1 X220.605 Y165.41 E10.2237
G1 X220.33 Y165.9 E10.24145
G1 X219.964 Y166.372 E10.26032
G1 X219.663 Y166.695 E10.27427
G1 X219.102 Y167.247 E10.29914
G1 X218.661 Y167.621 E10.31741
G1 X218.124 Y168.013 E10.33842
G1 X216.87 Y168.901 E10.38697
G1 X215.856 Y169.641 E10.42663
G1 X215.175 Y170.04 E10.45157
G1 X214.588 Y170.265 E10.47144
G1 X214.039 Y170.386 E10.4892
G1 X213.527 Y170.428 E10.50543
G1 X212.747 Y170.44 E10.53008
G1 X200.476 Y170.441 E10.91781
G1 X197.675 Y170.481 E11.00632
G1 X195 Y170.594 E11.09092
G1 X192.272 Y170.788 E11.17733
G1 X189.65 Y171.05 E11.26059
G1 X189.002 Y171.084 E11.2811
G1 X187.781 Y171.087 E11.31968
G1 X187.083 Y171.077 E11.34173
G1 X186.524 Y171.029 E11.35946
G1 X185.976 Y170.902 E11.37724
G1 X185.453 Y170.698 E11.39497
G1 X184.963 Y170.423 E11.41273
G1 X184.416 Y169.988 E11.43481
G1 X184.018 Y169.609 E11.45218
G1 X181.202 Y166.798 E11.5779
G1 X180.694 Y166.277 E11.60089
G1 X180.331 Y165.848 E11.61865
G1 X180.033 Y165.372 E11.63639
G1 X179.806 Y164.858 E11.65415
G1 X179.653 Y164.317 E11.67191
G1 X179.573 Y163.605 E11.69455
G1 X179.561 Y163.054 E11.71196
G1 X179.557 Y160.995 E11.77702
G1 X179.56 Y156.741 E11.91144
G1 X179.552 Y155.62 E11.94686
G1 X179.552 Y148.166 E12.18238
G1 X179.561 Y146.811 E12.2252
G1 X179.559 Y143.114 E12.34201
G1 X179.552 Y142.195 E12.37105
G1 X179.552 Y136.854 E12.53981
G1 X179.564 Y136.396 E12.55429
G1 X179.62 Y135.837 E12.57204
G1 X179.755 Y135.292 E12.58978
G1 X179.966 Y134.771 E12.60754
G1 X180.249 Y134.285 E12.62531
G1 X180.664 Y133.774 E12.64611
G1 X181.179 Y133.296 E12.66831
G1 X181.645 Y132.983 E12.68605
G1 X182.151 Y132.738 E12.70381
G1 X182.686 Y132.569 E12.72154
G1 X183.241 Y132.476 E12.73932
G1 X184.094 Y132.45 E12.76629
G1 X215.749 Y132.449 E13.76649
G1 X216.439 Y132.459 E13.7883
G1 X216.999 Y132.507 E13.80606
G1 F4200 E5.80606
G0 F1600 X216.393 Y156.881
;TYPE:SUPPORT
G1 F4200 E13.80606
G1 F1200 X216.393 Y157.768 E13.83408
G1 X216.772 Y158.147 E13.85102
G1 X216.854 Y158.147 E13.85361
G1 X216.854 Y163.654 E14.02762
G1 X216.289 Y164.219 E14.05286
G1 X216.008 Y164.101 E14.06249
G1 X215.523 Y164.198 E14.07812
G1 X213.424 Y166.299 E14.17196
G1 X189.36 Y166.302 E14.93231
G1 X188.981 Y166.681 E14.94925
G1 X188.981 Y166.947 E14.95765
G1 X187.209 Y166.947 E15.01364
G1 X183.701 Y163.443 E15.17031
G1 X183.697 Y160.84 E15.25256
G1 X183.704 Y156.88 E15.37768
G1 X188.499 Y156.88 E15.52919
G1 X189.136 Y156.243 E15.55765
G1 X189.008 Y146.621 E15.86171
G1 X183.701 Y146.621 E16.02939
G1 X183.702 Y143.381 E16.13177
G1 X188.499 Y143.381 E16.28334
G1 X189.131 Y142.749 E16.31158
G1 X189.131 Y140.881 E16.37061
G1 X189.385 Y140.881 E16.37863
G1 X189.385 Y141.741 E16.4058
G1 X189.764 Y142.12 E16.42274
G1 X189.806 Y142.12 E16.42407
G1 X189.8 Y161.558 E17.03825
G1 X190.179 Y161.937 E17.05519
G1 X208.441 Y161.954 E17.63221
G1 X208.786 Y161.801 E17.64414
G1 X211.572 Y161.801 E17.73217
G1 X211.951 Y161.422 E17.7491
G1 X211.951 Y158.7 E17.83511
G1 X213.108 Y157.544 E17.88679
G1 X213.108 Y156.88 E17.90777
G1 X216.393 Y156.881 E18.01157
G1 F4200 E10.01157
G0 F1600 X205.2 Y165.959
G1 F4200 E18.01157
G1 F1200 X205.2 Y162.293 E18.1274
G1 X208.513 Y162.296 E18.23208
G1 X208.859 Y162.143 E18.24404
G1 X211.714 Y162.143 E18.33425
G1 X211.98 Y161.877 E18.34613
G1 X215.426 Y163.867 E18.47187
G1 X215.354 Y163.883 E18.4742
G1 X213.283 Y165.957 E18.56681
G1 X196.248 Y165.958 E19.10507
G1 X184.042 Y158.911 E19.5504
G1 X184.039 Y160.84 E19.61135
G1 X184.043 Y163.302 E19.68915
G1 X187.35 Y166.605 E19.83683
G1 X188.639 Y166.605 E19.87756
G1 X188.639 Y166.539 E19.87964
G1 X189.218 Y165.96 E19.90552
G1 X193.8 Y165.96 E20.0503
G1 X193.8 Y162.283 E20.16648
G1 X197.713 Y162.285 E20.29012
G1 X191.348 Y165.959 E20.52233
G1 F4200 E12.52233
G0 F1600 X189.378 Y148.828
G1 F4200 E20.52233
G1 F1200 X189.461 Y148.876 E20.52536
G1 X189.459 Y153.887 E20.6837
G1 X189.446 Y153.894 E20.68416
G1 X189.345 Y146.279 E20.9248
G1 X184.961 Y146.278 E21.06332
G1 X184.043 Y145.748 E21.09681
G1 X184.043 Y143.85 E21.15678
G1 X184.266 Y143.722 E21.16491
G1 X188.641 Y143.723 E21.30314
G1 X189.464 Y142.9 E21.33992
G1 F4200 E13.33992
;MESH:ktROBO1a.stl
G0 F1600 X187.667 Y148.085
G0 X184.142 Y155.36
G0 X184.072 Y155.43
;TYPE:WALL-INNER
G1 F4200 E21.33992
G1 F1200 X184.072 Y148.071 E21.57244
G1 X187.681 Y148.071 E21.68648
G1 X187.681 Y155.43 E21.919
G1 X184.072 Y155.43 E22.03303
G0 F1600 X183.702 Y155.8
;TYPE:WALL-OUTER
G1 F1200 X183.702 Y147.701 E22.28894
G1 X188.051 Y147.701 E22.42636
G1 X188.051 Y155.8 E22.68226
G1 X183.702 Y155.8 E22.81968
G0 F1600 X183.702 Y155.6
G0 X184.12 Y155.382
G0 X184.442 Y155.06
;TYPE:SKIN
G1 F1200 X184.442 Y148.441 E23.02882
G1 X187.311 Y148.441 E23.11947
G1 X187.311 Y155.06 E23.32861
G1 X184.442 Y155.06 E23.41926
G0 F1600 X184.983 Y154.888
G1 F1200 X184.612 Y154.517 E23.43584
G0 F1600 X184.612 Y153.98
G1 F1200 X185.52 Y154.888 E23.47642
G0 F1600 X186.058 Y154.888
G1 F1200 X184.612 Y153.442 E23.54103
G0 F1600 X184.612 Y152.905
G1 F1200 X186.595 Y154.888 E23.62964
G0 F1600 X187.132 Y154.888
G1 F1200 X184.612 Y152.368 E23.74225
G0 F1600 X184.612 Y151.83
G1 F1200 X187.139 Y154.357 E23.85517
G0 F1600 X187.139 Y153.82
G1 F1200 X184.612 Y151.293 E23.96809
G0 F1600 X184.612 Y150.755
G1 F1200 X187.139 Y153.283 E24.08103
G0 F1600 X187.139 Y152.745
G1 F1200 X184.612 Y150.218 E24.19395
G0 F1600 X184.612 Y149.681
G1 F1200 X187.139 Y152.208 E24.30687
G0 F1600 X187.139 Y151.67
G1 F1200 X184.612 Y149.143 E24.41978
G0 F1600 X184.617 Y148.611
G1 F1200 X187.139 Y151.133 E24.53248
G0 F1600 X187.139 Y150.596
G1 F1200 X185.155 Y148.611 E24.62116
G0 F1600 X185.692 Y148.611
G1 F1200 X187.139 Y150.058 E24.68582
G0 F1600 X187.139 Y149.521
G1 F1200 X186.23 Y148.611 E24.72646
G0 F1600 X186.767 Y148.611
G1 F1200 X187.139 Y148.983 E24.74308
G1 F4200 E16.74308
G0 F1600 X187.667 Y148.085
G0 X187.667 Y139.417
G0 X212.391 Y139.361
G0 X212.321 Y139.431
;TYPE:WALL-INNER
G1 F4200 E24.74308
G1 F1200 X187.681 Y139.431 E25.52163
G1 X187.681 Y141.931 E25.60063
G1 X184.072 Y141.931 E25.71466
G1 X184.072 Y136.969 E25.87145
G1 X215.929 Y136.969 E26.87804
G1 X215.93 Y155.242 E27.45541
G1 X215.93 Y155.431 E27.46138
G1 X215.741 Y155.431 E27.46524
G1 X212.321 Y155.43 E27.57331
G1 X212.321 Y139.431 E28.07883
G0 F1600 X211.951 Y139.801
;TYPE:WALL-OUTER
G1 F1200 X188.051 Y139.801 E28.834
G1 X188.051 Y142.301 E28.91299
G1 X183.702 Y142.301 E29.05041
G1 X183.702 Y136.599 E29.23058
G1 X216.299 Y136.599 E30.26055
G1 X216.3 Y155.611 E30.86127
G1 X216.3 Y155.801 E30.86728
G1 X216.11 Y155.801 E30.87116
G1 X211.951 Y155.8 E31.00258
G1 X211.951 Y139.801 E31.5081
G0 F1600 X211.751 Y139.801
G0 X211.751 Y139.383
G0 X212.691 Y139.061
;TYPE:SKIN
G1 F1200 X187.311 Y139.061 E32.31003
G1 X187.311 Y141.561 E32.38903
G1 X184.442 Y141.561 E32.47968
G1 X184.442 Y137.339 E32.61308
G1 X215.559 Y137.339 E33.59629
G1 X215.56 Y155.061 E34.15625
G1 X212.691 Y155.06 E34.24691
G1 X212.691 Y139.061 E34.75243
G0 F1600 X214.896 Y137.51
G1 F1200 X215.388 Y138.002 E34.77441
G0 F1600 X215.388 Y138.539
G1 F1200 X214.358 Y137.51 E34.82042
G0 F1600 X213.821 Y137.51
G1 F1200 X215.388 Y139.077 E34.89044
G0 F1600 X215.388 Y139.614
G1 F1200 X213.283 Y137.51 E34.98448
G0 F1600 X212.746 Y137.51
G1 F1200 X215.388 Y140.152 E35.10254
G0 F1600 X215.388 Y140.689
G1 F1200 X212.209 Y137.51 E35.24459
G0 F1600 X211.671 Y137.51
G1 F1200 X215.388 Y141.226 E35.41066
G0 F1600 X215.388 Y141.764
G1 F1200 X212.861 Y139.237 E35.52358
G0 F1600 X212.513 Y138.889
G1 F1200 X211.134 Y137.51 E35.5852
G0 F1600 X210.596 Y137.51
G1 F1200 X211.976 Y138.889 E35.64684
G0 F1600 X211.439 Y138.889
G1 F1200 X210.059 Y137.51 E35.70849
G0 F1600 X209.522 Y137.51
G1 F1200 X210.901 Y138.889 E35.77011
G0 F1600 X210.364 Y138.889
G1 F1200 X208.984 Y137.51 E35.83175
G0 F1600 X208.447 Y137.51
G1 F1200 X209.826 Y138.889 E35.89337
G0 F1600 X209.289 Y138.889
G1 F1200 X207.909 Y137.51 E35.95501
G0 F1600 X207.372 Y137.51
G1 F1200 X208.752 Y138.889 E36.01666
G0 F1600 X208.214 Y138.889
G1 F1200 X206.835 Y137.51 E36.07828
G0 F1600 X206.297 Y137.51
G1 F1200 X207.677 Y138.889 E36.13992
G0 F1600 X207.139 Y138.889
G1 F1200 X205.76 Y137.51 E36.20154
G0 F1600 X205.222 Y137.51
G1 F1200 X206.602 Y138.889 E36.26319
G0 F1600 X206.065 Y138.889
G1 F1200 X204.685 Y137.51 E36.32483
G0 F1600 X204.148 Y137.51
G1 F1200 X205.527 Y138.889 E36.38645
G0 F1600 X204.99 Y138.889
G1 F1200 X203.61 Y137.51 E36.44809
G0 F1600 X203.073 Y137.51
G1 F1200 X204.452 Y138.889 E36.50971
G0 F1600 X203.915 Y138.889
G1 F1200 X202.535 Y137.51 E36.57136
G0 F1600 X201.998 Y137.51
G1 F1200 X203.378 Y138.889 E36.633
G0 F1600 X202.84 Y138.889
G1 F1200 X201.461 Y137.51 E36.69462
G0 F1600 X200.923 Y137.51
G1 F1200 X202.303 Y138.889 E36.75626
G0 F1600 X201.765 Y138.889
G1 F1200 X200.386 Y137.51 E36.81788
G0 F1600 X199.848 Y137.51
G1 F1200 X201.228 Y138.889 E36.87953
G0 F1600 X200.691 Y138.889
G1 F1200 X199.311 Y137.51 E36.94117
G0 F1600 X198.774 Y137.51
G1 F1200 X200.153 Y138.889 E37.00279
G0 F1600 X199.616 Y138.889
G1 F1200 X198.236 Y137.51 E37.06443
G0 F1600 X197.699 Y137.51
G1 F1200 X199.078 Y138.889 E37.12605
G0 F1600 X198.541 Y138.889
G1 F1200 X197.161 Y137.51 E37.1877
G0 F1600 X196.624 Y137.51
G1 F1200 X198.004 Y138.889 E37.24934
G0 F1600 X197.466 Y138.889
G1 F1200 X196.087 Y137.51 E37.31096
G0 F1600 X195.549 Y137.51
G1 F1200 X196.929 Y138.889 E37.3726
G0 F1600 X196.391 Y138.889
G1 F1200 X195.012 Y137.51 E37.43423
G0 F1600 X194.474 Y137.51
G1 F1200 X195.854 Y138.889 E37.49587
G0 F1600 X195.317 Y138.889
G1 F1200 X193.937 Y137.51 E37.55751
G0 F1600 X193.4 Y137.51
G1 F1200 X194.779 Y138.889 E37.61913
G0 F1600 X194.242 Y138.889
G1 F1200 X192.862 Y137.51 E37.68078
G0 F1600 X192.325 Y137.51
G1 F1200 X193.704 Y138.889 E37.7424
G0 F1600 X193.167 Y138.889
G1 F1200 X191.787 Y137.51 E37.80404
G0 F1600 X191.25 Y137.51
G1 F1200 X192.63 Y138.889 E37.86568
G0 F1600 X192.092 Y138.889
G1 F1200 X190.713 Y137.51 E37.9273
G0 F1600 X190.175 Y137.51
G1 F1200 X191.555 Y138.889 E37.98895
G0 F1600 X191.017 Y138.889
G1 F1200 X189.638 Y137.51 E38.05057
G0 F1600 X189.1 Y137.51
G1 F1200 X190.48 Y138.889 E38.11221
G0 F1600 X189.943 Y138.889
G1 F1200 X188.563 Y137.51 E38.17385
G0 F1600 X188.026 Y137.51
